style-guide/assets/wds-icons-comment.svg

<svg viewBox="0 0 24 24" xmlns="http://www.w3.org/2000/svg">
  <path d="M9 3c-1.603 0-3.11.624-4.243 1.757A5.961 5.961 0 0 0 3 9c0 3.309 2.691 6 6 6a1 1 0 0 1 1 1v3.586l4.293-4.293A.997.997 0 0 1 15 15c1.603 0 3.11-.624 4.243-1.757A5.961 5.961 0 0 0 21 9c0-3.309-2.691-6-6-6H9zm0 20a1 1 0 0 1-1-1v-5.062C4.059 16.443 1 13.072 1 9c0-2.137.832-4.146 2.343-5.657A7.946 7.946 0 0 1 9 1h6c4.411 0 8 3.589 8 8a7.948 7.948 0 0 1-2.343 5.657 7.934 7.934 0 0 1-5.232 2.331l-5.718 5.719A1 1 0 0 1 9 23z"/>
</svg>

<svg xmlns="http://www.w3.org/2000/svg" xmlns:xlink="http://www.w3.org/1999/xlink" width="24" height="24" viewBox="0 0 24 24">
  <defs>
    <path id="comment-a" d="M9,3 C7.397,3 5.89,3.624 4.757,4.757 C3.624,5.891 3,7.396 3,9 C3,12.309 5.691,15 9,15 C9.552,15 10,15.447 10,16 L10,19.586 L14.293,15.293 C14.48,15.105 14.735,15 15,15 C16.603,15 18.11,14.376 19.243,13.243 C20.376,12.109 21,10.604 21,9 C21,5.691 18.309,3 15,3 L9,3 Z M9,23 C8.871,23 8.741,22.975 8.617,22.924 C8.244,22.77 8,22.404 8,22 L8,16.938 C4.059,16.443 1,13.072 1,9 C1,6.863 1.832,4.854 3.343,3.343 C4.854,1.832 6.862,1 9,1 L15,1 C19.411,1 23,4.589 23,9 C23,11.137 22.168,13.146 20.657,14.657 C19.247,16.067 17.402,16.887 15.425,16.988 L9.707,22.707 C9.516,22.898 9.26,23 9,23 Z"/>
  </defs>
  <use fill-rule="evenodd" xlink:href="#comment-a"/>
</svg>
